img/project-access/hero-logo.svg

<svg fill="none" height="30" viewBox="0 0 160 30" width="160" xmlns="http://www.w3.org/2000/svg"><path clip-rule="evenodd" d="m7.07788 7.24099c-.22107.22239-.52209.34748-.83618.34748-.31397 0-.61499-.12509-.83618-.34748l-1.2616-1.25824c-.46326-.46055-.46435-1.20836-.00256-1.67025.46179-.46192 1.21167-.46303 1.67492-.00248l1.2616 1.25824c.22339.22136.34888.52239.34888.83637s-.12549.615-.34888.83636zm-3.36938 6.80441c-.22425.2205-.52625.3445-.84119.3454h-1.75647c-.624756-.0403-1.11084-.5574-1.11084-1.1818 0-.6243.486084-1.1415 1.11084-1.1817h1.75647c.31445-.0013.61658.1223.83936.3436.2229.2213.34814.522.34814.8357-.00085.314-.12524.6152-.34631.8388zm10.2172-10.17452c-.3377.34083-.8487.444-1.2928.261-.4439-.18299-.7329-.61574-.7308-1.09491v-1.77634c-.0286-.440428.1908-.860152.5692-1.089003.3784-.228836.853-.228836 1.2315 0 .3784.228851.5979.648575.5693 1.089003v1.77141c.0012.31448-.1234.61645-.3464.83884zm15.3381 25.47072c-.2221.2227-.5239.3479-.8388.3479-.3148 0-.6167-.1252-.8386-.3479l-9.0693-9.0445c-.4251-.4679-.4074-1.1861.0403-1.6326.4476-.4464 1.1678-.4641 1.6369-.0401l9.0695 9.0445c.2233.2214.3487.5224.3487.8364s-.1254.615-.3487.8363zm-12.1716-12.1137c-1.5804 1.5773-3.9578 2.0497-6.0236 1.1969-2.06579-.8528-3.41284-2.8628-3.41284-5.0925 0-2.2296 1.34705-4.23968 3.41284-5.0925 2.0658-.85281 4.4432-.3804 6.0236 1.1969 2.156 2.152 2.156 5.6392 0 7.7912zm-6.1354-6.0987c-.9026.8984-1.17335 2.2508-.6859 3.4261.4875 1.1752 1.6372 1.9416 2.9124 1.9416 1.2753 0 2.425-.7664 2.9124-1.9416.4876-1.1753.2168-2.5277-.6858-3.4261-1.2303-1.22471-3.2228-1.22471-4.4531 0zm19.4399 13.2288c-.2219.2227-.5238.3479-.8386.3479s-.6167-.1252-.8386-.3479l-2.0979-2.0921c-.4251-.4679-.4074-1.1861.0403-1.6326.4477-.4464 1.1678-.4641 1.6371-.0402l2.0977 2.0922c.2234.2213.3489.5224.3489.8363 0 .314-.1255.615-.3489.8364zm79.2943-4.4112c.973.011 1.915-.3409 2.642-.9869l-.02.8043h1.677v-8.5412h-1.677v.7796c-1.35-1.1098-3.247-1.2746-4.77-.4145-1.363.8284-2.196 2.3057-2.196 3.8981s.833 3.0697 2.196 3.8981c.656.3679 1.395.5616 2.148.5625zm2.587-6.084v.0296 3.1629.0296c-.549.7433-1.414 1.1885-2.34 1.204-.754.012-1.481-.2805-2.016-.8111-.535-.5305-.832-1.2541-.824-2.0064-.021-.7403.259-1.4576.778-1.9877.518-.5302 1.23-.8278 1.973-.8249.953.0046 1.85.4492 2.429 1.204zm8.585 6.0643c1.526.0144 2.957-.7364 3.81-1.9984l-.94-.6711c-.219-.1543-.519-.1249-.703.0691-.551.6244-1.343.9836-2.177.9868-1.519-.027-2.745-1.2476-2.774-2.7627-.03-1.515 1.148-2.7818 2.665-2.8673.951.0256 1.833.5046 2.37 1.2879l1.277-1.0708c-.849-1.1637-2.204-1.8531-3.647-1.8553-1.189-.0258-2.337.4337-3.177 1.2722-.841.8385-1.302 1.9832-1.276 3.1687-.013 1.2025.469 2.3578 1.332 3.1968.864.8391 2.035 1.2887 3.24 1.2441zm9.569 0c1.526.0144 2.957-.7364 3.81-1.9984l-.95-.6958c-.219-.1542-.518-.1248-.703.0691-.551.6234-1.343.9824-2.177.9869-1.519-.0271-2.745-1.2477-2.774-2.7628-.029-1.515 1.148-2.7818 2.665-2.8673.952.0257 1.833.5046 2.37 1.2879l1.287-1.0461c-.849-1.1637-2.204-1.8531-3.647-1.8553-1.189-.0258-2.336.4337-3.177 1.2722s-1.302 1.9832-1.276 3.1687c-.013 1.2025.469 2.3578 1.332 3.1968.864.8391 2.035 1.2887 3.24 1.2441zm6.698-4.0785c.008-.0068.019-.0111.031-.0121l6.556.0198c.005-.0763.006-.1526.005-.229 0-.0454-.002-.0908-.005-.1362 0-2.5115-1.692-4.4408-4.117-4.4408-2.424 0-4.171 1.8799-4.171 4.4408-.028 1.1811.428 2.3227 1.263 3.1609.834.8382 1.976 1.3005 3.161 1.28 1.386.0506 2.719-.5392 3.611-1.5987l-.747-.7106c-.209-.1973-.537-.1973-.747 0-.568.5284-1.321.8136-2.098.7945-1.44.0076-2.644-1.0902-2.766-2.5215 0-.0191.009-.0362.024-.0471zm4.721-1.4628h-4.537c-.007-.0005-.015-.0027-.021-.0061-.007-.0037-.013-.0087-.018-.0149-.007-.0095-.011-.0212-.011-.0331 0-.0033 0-.0067.001-.01.304-1.0638 1.28-1.7959 2.39-1.7912 1.064.0339 1.979.7632 2.246 1.7912.003.0152-.001.0309-.01.0431-.01.0123-.024.0199-.04.021zm4.627 3.3702c-.247-.1427-.562-.0717-.723.1628l-.569.8092c.979.7884 2.206 1.2077 3.464 1.1843 1.702 0 3.186-1.0017 3.186-2.6202 0-1.7615-1.766-2.3586-3.112-2.704-.856-.2023-1.534-.4046-1.534-.9868 0-.6711.713-1.0708 1.549-1.0708.671.0152 1.318.2511 1.84.6711l.896-1.2336c-.813-.6493-1.834-.9855-2.875-.9473-1.529 0-3.171.8388-3.171 2.6743 0 1.2089.94 1.8504 1.979 2.1958.303.1011.615.1807.916.2571.945.2406 1.766.4495 1.766 1.1985 0 .6711-.743 1.0708-1.485 1.0708-.758-.0127-1.496-.2422-2.127-.6612zm8.188 0c-.245-.1421-.558-.071-.717.1628l-.599.8092c.978.79 2.205 1.2094 3.464 1.1843 1.672 0 3.186-1.0017 3.186-2.6202 0-1.7615-1.766-2.3586-3.117-2.704-.856-.2023-1.529-.4046-1.529-.9868 0-.6711.708-1.0708 1.549-1.0708.671.0152 1.318.2511 1.84.6711l.891-1.2336c-.804-.6426-1.811-.9785-2.84-.9473-1.534 0-3.172.8388-3.172 2.6743 0 1.2089.94 1.8504 1.979 2.1958.303.1009.615.1804.914.2567.944.2407 1.763.4495 1.763 1.1989 0 .6711-.737 1.0708-1.484 1.0708-.758-.0143-1.496-.2437-2.128-.6612zm-112.7851 4.7665h1.7316v-3.4984c.7167.6037 1.6302.9249 2.568.903.7539-.0003 1.4952-.194 2.1523-.5626 1.3637-.8283 2.196-2.3056 2.196-3.898 0-1.5925-.8323-3.0698-2.196-3.8981-.6353-.3677-1.3584-.557-2.0929-.5477-.9818-.0169-1.9358.3254-2.6817.9621v-.7796h-1.6773zm1.7316-5.4376c-.002-.0114-.002-.0231 0-.0345v-3.1629c-.002-.0114-.002-.0231 0-.0346.5828-.7525 1.481-1.1949 2.4344-1.199.7427-.003 1.4547.2947 1.9732.8248.5186.5302.7992 1.2475.7778 1.9878.0081.7531-.2896 1.4775-.8255 2.0082s-1.2644.8226-2.0195.8092c-.9248-.0142-1.7901-.4576-2.3404-1.199zm13.2553-4.4261c.2264-.0078.4529.0155.6728.0691l.2029-1.648c-.2226-.0343-.4475-.0524-.6728-.0543-.9943-.0408-1.949.3913-2.5729 1.1645v-.9869h-1.6724v8.5216h1.7317v-5.6399c.4822-.8313 1.3496-1.3667 2.3107-1.4261zm10.3461 1.0861c-.6971-1.6586-2.3284-2.7342-4.1316-2.7242-1.1863-.0247-2.3308.436-3.1675 1.275-.8366.839-1.2922 1.983-1.2609 3.1658 0 1.7984 1.0877 3.4193 2.7548 4.1051 1.667.6859 3.5842.3015 4.8558-.9737s1.6465-3.1894.9494-4.848zm-1.4317 2.8966c-.478 1.0475-1.547 1.6998-2.6999 1.6474-.7381.0008-1.4442-.3001-1.9538-.8325s-.778-1.2498-.7428-1.985c.0011-1.151.7043-2.1855 1.7758-2.613 1.0717-.4275 2.2963-.162 3.0931.6706.7969.8326 1.0058 2.0649.5276 3.1125zm10.0764-.7891c.0102-.0101.0241-.0159.0385-.0159h6.5558v-.3651c0-2.5116-1.6922-4.4409-4.1166-4.4409-2.4243 0-4.1709 1.88-4.1709 4.4409-.0286 1.182.428 2.3243 1.2639 3.1627.8361.8384 1.979 1.3 3.1643 1.2782 1.385.049 2.7155-.5407 3.607-1.5988l-.7521-.7154c-.2036-.1839-.5138-.1839-.7174 0-.5703.5434-1.334.8381-2.1226.8191-1.4421.0074-2.647-1.0932-2.7658-2.5264 0-.0144.0057-.0282.0159-.0384zm4.729-1.4666h-4.5372c-.0154-.0011-.0296-.0087-.039-.021-.0096-.0122-.0132-.0279-.0104-.0431.3039-1.0638 1.2806-1.7959 2.3897-1.7912 1.065.0323 1.9805.7623 2.2464 1.7912.0028.0152-.0009.0309-.0104.0431-.0094.0123-.0237.0199-.0391.021zm7.9908 5.5413c1.5258.0144 2.957-.7364 3.8098-1.9984l-.9401-.6711c-.2178-.1588-.5202-.129-.7026.0691-.5507.6244-1.3433.9836-2.177.9868-1.5193-.027-2.745-1.2476-2.7743-2.7627-.0293-1.515 1.1483-2.7818 2.6654-2.8673.9513.0256 1.8326.5046 2.37 1.2879l1.2765-1.0708c-.8487-1.1637-2.2036-1.8531-3.6465-1.8553-1.1888-.0258-2.3366.4337-3.1774 1.2722s-1.3016 1.9832-1.2756 3.1687c-.0131 1.2025.4684 2.3578 1.3321 3.1968.8639.8391 2.0346 1.2887 3.2397 1.2441zm8.817 0c.4567.0043.9116-.0572 1.3507-.1826l-.3463-1.5494c-.3114.0726-.6303.109-.9501.1086-.4402.0188-.8685-.1456-1.1825-.454-.2099-.3227-.301-.7082-.2573-1.0905v-3.9967h2.7362v-1.5445h-2.7362v-2.3635h-1.7267v2.3635 1.5445 3.9079c-.0651.8167.1825 1.6277.6926 2.2698.6203.67 1.5063 1.0314 2.4196.9869zm-25.4862-8.7239h-1.7318l-.0099 7.7419c.0626.5303-.0523 1.0663-.3266 1.5247-.3687.4267-.9218.6492-1.4843.5971-.2616-.02-.4998.1508-.564.4046l-.2523 1.1102c.3332.0833.6756.1248 1.0191.1234 1.1131.0221 2.1644-.5086 2.8055-1.4162.3809-.5427.5443-1.2533.5443-2.398zm-.0725-3.77968c-.2084-.22272-.498-.35251-.8034-.36017-.6255-.01569-1.1463.47524-1.166 1.09895-.0195.62372.4695 1.14621 1.0947 1.16967.6253.02345 1.1523-.46097 1.1797-1.08438.0133-.30439-.0965-.60134-.305-.82407z" fill="#fff" fill-rule="evenodd"/></svg>

<svg width="160" height="30" viewBox="0 0 160 30" fill="none" xmlns="http://www.w3.org/2000/svg">
<path fill-rule="evenodd" clip-rule="evenodd" d="M7.07788 7.24099C6.85681 7.46338 6.55579 7.58847 6.2417 7.58847C5.92773 7.58847 5.62671 7.46338 5.40552 7.24099L4.14392 5.98275C3.68066 5.5222 3.67957 4.77439 4.14136 4.3125C4.60315 3.85058 5.35303 3.84947 5.81628 4.31002L7.07788 5.56826C7.30127 5.78962 7.42676 6.09065 7.42676 6.40463C7.42676 6.71861 7.30127 7.01963 7.07788 7.24099ZM3.7085 14.0454C3.48425 14.2659 3.18225 14.3899 2.86731 14.3908H1.11084C0.486084 14.3505 0 13.8334 0 13.209C0 12.5847 0.486084 12.0675 1.11084 12.0273H2.86731C3.18176 12.026 3.48389 12.1496 3.70667 12.3709C3.92957 12.5922 4.05481 12.8929 4.05481 13.2066C4.05396 13.5206 3.92957 13.8218 3.7085 14.0454ZM13.9257 3.87088C13.588 4.21171 13.077 4.31488 12.6329 4.13188C12.189 3.94889 11.9 3.51614 11.9021 3.03697V1.26063C11.8735 0.820202 12.0929 0.400478 12.4713 0.171627C12.8497 -0.057209 13.3243 -0.057209 13.7028 0.171627C14.0812 0.400478 14.3007 0.820202 14.2721 1.26063V3.03204C14.2733 3.34652 14.1487 3.64849 13.9257 3.87088ZM29.2638 29.3416C29.0417 29.5643 28.7399 29.6895 28.425 29.6895C28.1102 29.6895 27.8083 29.5643 27.5864 29.3416L18.5171 20.2971C18.092 19.8292 18.1097 19.111 18.5574 18.6645C19.005 18.2181 19.7252 18.2004 20.1943 18.6244L29.2638 27.6689C29.4871 27.8903 29.6125 28.1913 29.6125 28.5053C29.6125 28.8193 29.4871 29.1203 29.2638 29.3416ZM17.0922 17.2279C15.5118 18.8052 13.1344 19.2776 11.0686 18.4248C9.00281 17.572 7.65576 15.562 7.65576 13.3323C7.65576 11.1027 9.00281 9.09262 11.0686 8.2398C13.1344 7.38699 15.5118 7.8594 17.0922 9.4367C19.2482 11.5887 19.2482 15.0759 17.0922 17.2279ZM10.9568 11.1292C10.0542 12.0276 9.78345 13.38 10.2709 14.5553C10.7584 15.7305 11.9081 16.4969 13.1833 16.4969C14.4586 16.4969 15.6083 15.7305 16.0957 14.5553C16.5833 13.38 16.3125 12.0276 15.4099 11.1292C14.1796 9.90449 12.1871 9.90449 10.9568 11.1292ZM30.3967 24.358C30.1748 24.5807 29.8729 24.7059 29.5581 24.7059C29.2433 24.7059 28.9414 24.5807 28.7195 24.358L26.6216 22.2659C26.1965 21.798 26.2142 21.0798 26.6619 20.6333C27.1096 20.1869 27.8297 20.1692 28.299 20.5931L30.3967 22.6853C30.6201 22.9066 30.7456 23.2077 30.7456 23.5216C30.7456 23.8356 30.6201 24.1366 30.3967 24.358ZM109.691 19.9468C110.664 19.9578 111.606 19.6059 112.333 18.9599L112.313 19.7642H113.99V11.223H112.313V12.0026C110.963 10.8928 109.066 10.728 107.543 11.5881C106.18 12.4165 105.347 13.8938 105.347 15.4862C105.347 17.0786 106.18 18.5559 107.543 19.3843C108.199 19.7522 108.938 19.9459 109.691 19.9468ZM112.278 13.8628V13.8924V17.0553V17.0849C111.729 17.8282 110.864 18.2734 109.938 18.2889C109.184 18.3009 108.457 18.0084 107.922 17.4778C107.387 16.9473 107.09 16.2237 107.098 15.4714C107.077 14.7311 107.357 14.0138 107.876 13.4837C108.394 12.9535 109.106 12.6559 109.849 12.6588C110.802 12.6634 111.699 13.108 112.278 13.8628ZM120.863 19.9271C122.389 19.9415 123.82 19.1907 124.673 17.9287L123.733 17.2576C123.514 17.1033 123.214 17.1327 123.03 17.3267C122.479 17.9511 121.687 18.3103 120.853 18.3135C119.334 18.2865 118.108 17.0659 118.079 15.5508C118.049 14.0358 119.227 12.769 120.744 12.6835C121.695 12.7091 122.577 13.1881 123.114 13.9714L124.391 12.9006C123.542 11.7369 122.187 11.0475 120.744 11.0453C119.555 11.0195 118.407 11.479 117.567 12.3175C116.726 13.156 116.265 14.3007 116.291 15.4862C116.278 16.6887 116.76 17.844 117.623 18.683C118.487 19.5221 119.658 19.9717 120.863 19.9271ZM130.432 19.9271C131.958 19.9415 133.389 19.1907 134.242 17.9287L133.292 17.2329C133.073 17.0787 132.774 17.1081 132.589 17.302C132.038 17.9254 131.246 18.2844 130.412 18.2889C128.893 18.2618 127.667 17.0412 127.638 15.5261C127.609 14.0111 128.786 12.7443 130.303 12.6588C131.255 12.6845 132.136 13.1634 132.673 13.9467L133.96 12.9006C133.111 11.7369 131.756 11.0475 130.313 11.0453C129.124 11.0195 127.977 11.479 127.136 12.3175C126.295 13.156 125.834 14.3007 125.86 15.4862C125.847 16.6887 126.329 17.844 127.192 18.683C128.056 19.5221 129.227 19.9717 130.432 19.9271ZM137.13 15.8486C137.138 15.8418 137.149 15.8375 137.161 15.8365L143.717 15.8563C143.722 15.78 143.723 15.7037 143.722 15.6273C143.722 15.5819 143.72 15.5365 143.717 15.4911C143.717 12.9796 142.025 11.0503 139.6 11.0503C137.176 11.0503 135.429 12.9302 135.429 15.4911C135.401 16.6722 135.857 17.8138 136.692 18.652C137.526 19.4902 138.668 19.9525 139.853 19.932C141.239 19.9826 142.572 19.3928 143.464 18.3333L142.717 17.6227C142.508 17.4254 142.18 17.4254 141.97 17.6227C141.402 18.1511 140.649 18.4363 139.872 18.4172C138.432 18.4248 137.228 17.327 137.106 15.8957C137.106 15.8766 137.115 15.8595 137.13 15.8486ZM141.851 14.3858H137.314C137.307 14.3853 137.299 14.3831 137.293 14.3797C137.286 14.376 137.28 14.371 137.275 14.3648C137.268 14.3553 137.264 14.3436 137.264 14.3317C137.264 14.3284 137.264 14.325 137.265 14.3217C137.569 13.2579 138.545 12.5258 139.655 12.5305C140.719 12.5644 141.634 13.2937 141.901 14.3217C141.904 14.3369 141.9 14.3526 141.891 14.3648C141.881 14.3771 141.867 14.3847 141.851 14.3858ZM146.478 17.756C146.231 17.6133 145.916 17.6843 145.755 17.9188L145.186 18.728C146.165 19.5164 147.392 19.9357 148.65 19.9123C150.352 19.9123 151.836 18.9106 151.836 17.2921C151.836 15.5306 150.07 14.9335 148.724 14.5881C147.868 14.3858 147.19 14.1835 147.19 13.6013C147.19 12.9302 147.903 12.5305 148.739 12.5305C149.41 12.5457 150.057 12.7816 150.579 13.2016L151.475 11.968C150.662 11.3187 149.641 10.9825 148.6 11.0207C147.071 11.0207 145.429 11.8595 145.429 13.695C145.429 14.9039 146.369 15.5454 147.408 15.8908C147.711 15.9919 148.023 16.0715 148.324 16.1479C149.269 16.3885 150.09 16.5974 150.09 17.3464C150.09 18.0175 149.347 18.4172 148.605 18.4172C147.847 18.4045 147.109 18.175 146.478 17.756ZM154.666 17.756C154.421 17.6139 154.108 17.685 153.949 17.9188L153.35 18.728C154.328 19.518 155.555 19.9374 156.814 19.9123C158.486 19.9123 160 18.9106 160 17.2921C160 15.5306 158.234 14.9335 156.883 14.5881C156.027 14.3858 155.354 14.1835 155.354 13.6013C155.354 12.9302 156.062 12.5305 156.903 12.5305C157.574 12.5457 158.221 12.7816 158.743 13.2016L159.634 11.968C158.83 11.3254 157.823 10.9895 156.794 11.0207C155.26 11.0207 153.622 11.8595 153.622 13.695C153.622 14.9039 154.562 15.5454 155.601 15.8908C155.904 15.9917 156.216 16.0712 156.515 16.1475C157.459 16.3882 158.278 16.597 158.278 17.3464C158.278 18.0175 157.541 18.4172 156.794 18.4172C156.036 18.4029 155.298 18.1735 154.666 17.756ZM41.8809 22.5225H43.6125V19.0241C44.3292 19.6278 45.2427 19.949 46.1805 19.9271C46.9344 19.9268 47.6757 19.7331 48.3328 19.3645C49.6965 18.5362 50.5288 17.0589 50.5288 15.4665C50.5288 13.874 49.6965 12.3967 48.3328 11.5684C47.6975 11.2007 46.9744 11.0114 46.2399 11.0207C45.2581 11.0038 44.3041 11.3461 43.5582 11.9828V11.2032H41.8809V22.5225ZM43.6125 17.0849C43.6105 17.0735 43.6105 17.0618 43.6125 17.0504V13.8875C43.6105 13.8761 43.6105 13.8644 43.6125 13.8529C44.1953 13.1004 45.0935 12.658 46.0469 12.6539C46.7896 12.6509 47.5016 12.9486 48.0201 13.4787C48.5387 14.0089 48.8193 14.7262 48.7979 15.4665C48.806 16.2196 48.5083 16.944 47.9724 17.4747C47.4365 18.0054 46.708 18.2973 45.9529 18.2839C45.0281 18.2697 44.1628 17.8263 43.6125 17.0849ZM56.8678 12.6588C57.0942 12.651 57.3207 12.6743 57.5406 12.7279L57.7435 11.0799C57.5209 11.0456 57.296 11.0275 57.0707 11.0256C56.0764 10.9848 55.1217 11.4169 54.4978 12.1901V11.2032H52.8254V19.7248H54.5571V14.0849C55.0393 13.2536 55.9067 12.7182 56.8678 12.6588ZM67.2139 13.7449C66.5168 12.0863 64.8855 11.0107 63.0823 11.0207C61.896 10.996 60.7515 11.4567 59.9148 12.2957C59.0782 13.1347 58.6226 14.2787 58.6539 15.4615C58.6539 17.2599 59.7416 18.8808 61.4087 19.5666C63.0757 20.2525 64.9929 19.8681 66.2645 18.5929C67.5361 17.3177 67.911 15.4035 67.2139 13.7449ZM65.7822 16.6415C65.3042 17.689 64.2352 18.3413 63.0823 18.2889C62.3442 18.2897 61.6381 17.9888 61.1285 17.4564C60.6189 16.924 60.3505 16.2066 60.3857 15.4714C60.3868 14.3204 61.09 13.2859 62.1615 12.8584C63.2332 12.4309 64.4578 12.6964 65.2546 13.529C66.0515 14.3616 66.2604 15.5939 65.7822 16.6415ZM75.8586 15.8524C75.8688 15.8423 75.8827 15.8365 75.8971 15.8365H82.4529V15.4714C82.4529 12.9598 80.7607 11.0305 78.3363 11.0305C75.912 11.0305 74.1654 12.9105 74.1654 15.4714C74.1368 16.6534 74.5934 17.7957 75.4293 18.6341C76.2654 19.4725 77.4083 19.9341 78.5936 19.9123C79.9786 19.9613 81.3091 19.3716 82.2006 18.3135L81.4485 17.5981C81.2449 17.4142 80.9347 17.4142 80.7311 17.5981C80.1608 18.1415 79.3971 18.4362 78.6085 18.4172C77.1664 18.4246 75.9615 17.324 75.8427 15.8908C75.8427 15.8764 75.8484 15.8626 75.8586 15.8524ZM80.5876 14.3858H76.0504C76.035 14.3847 76.0208 14.3771 76.0114 14.3648C76.0018 14.3526 75.9982 14.3369 76.001 14.3217C76.3049 13.2579 77.2816 12.5258 78.3907 12.5305C79.4557 12.5628 80.3712 13.2928 80.6371 14.3217C80.6399 14.3369 80.6362 14.3526 80.6267 14.3648C80.6173 14.3771 80.603 14.3847 80.5876 14.3858ZM88.5784 19.9271C90.1042 19.9415 91.5354 19.1907 92.3882 17.9287L91.4481 17.2576C91.2303 17.0988 90.9279 17.1286 90.7455 17.3267C90.1948 17.9511 89.4022 18.3103 88.5685 18.3135C87.0492 18.2865 85.8235 17.0659 85.7942 15.5508C85.7649 14.0358 86.9425 12.769 88.4596 12.6835C89.4109 12.7091 90.2922 13.1881 90.8296 13.9714L92.1061 12.9006C91.2574 11.7369 89.9025 11.0475 88.4596 11.0453C87.2708 11.0195 86.123 11.479 85.2822 12.3175C84.4414 13.156 83.9806 14.3007 84.0066 15.4862C83.9935 16.6887 84.475 17.844 85.3387 18.683C86.2026 19.5221 87.3733 19.9717 88.5784 19.9271ZM97.3954 19.9271C97.8521 19.9314 98.307 19.8699 98.7461 19.7445L98.3998 18.1951C98.0884 18.2677 97.7695 18.3041 97.4497 18.3037C97.0095 18.3225 96.5812 18.1581 96.2672 17.8497C96.0573 17.527 95.9662 17.1415 96.0099 16.7592V12.7625H98.7461V11.218H96.0099V8.8545H94.2832V11.218V12.7625V16.6704C94.2181 17.4871 94.4657 18.2981 94.9758 18.9402C95.5961 19.6102 96.4821 19.9716 97.3954 19.9271ZM71.9092 11.2032H70.1774L70.1675 18.9451C70.2301 19.4754 70.1152 20.0114 69.8409 20.4698C69.4722 20.8965 68.9191 21.119 68.3566 21.0669C68.095 21.0469 67.8568 21.2177 67.7926 21.4715L67.5403 22.5817C67.8735 22.665 68.2159 22.7065 68.5594 22.7051C69.6725 22.7272 70.7238 22.1965 71.3649 21.2889C71.7458 20.7462 71.9092 20.0356 71.9092 18.8909V11.2032ZM71.8367 7.42352C71.6283 7.2008 71.3387 7.07101 71.0333 7.06335C70.4078 7.04766 69.887 7.53859 69.8673 8.1623C69.8478 8.78602 70.3368 9.30851 70.962 9.33197C71.5873 9.35542 72.1143 8.871 72.1417 8.24759C72.155 7.9432 72.0452 7.64625 71.8367 7.42352Z" fill="white"/>
</svg>
